deployments/warp_routes/USDSC/logo.svg

<svg xmlns="http://www.w3.org/2000/svg" width="500" height="500" fill="none" viewBox="0 0 500 500"><rect width="500" height="500" fill="#E0E0E0" rx="250"/><path fill="#5C616A" d="M249.972 18.974c127.577 0 230.999 103.422 230.999 230.999S377.549 480.972 249.972 480.972 18.973 377.55 18.973 249.973s103.422-231 230.999-231m188.023 240.81a885.7 885.7 0 0 1-178.213 178.211c96.291-4.682 173.53-81.919 178.213-178.211M63.177 262.42c5.91 94.402 81.596 169.882 176.085 175.468A885.8 885.8 0 0 1 63.177 262.421m173.341-102.484c-8.596 1.798-16.883 5.025-23.904 9.887-11.754 8.141-19.869 20.817-19.869 38.573 0 12.942 4.491 23.268 12.716 31.798 8.14 8.44 19.849 15.035 34.176 20.838l.011.004c12.28 4.911 21.34 9.185 27.329 13.944 5.84 4.64 8.585 9.591 8.585 16.051 0 7.354-2.933 12.606-8.014 16.125-5.214 3.612-12.927 5.55-22.614 5.55-12.376 0-28.873-3.008-44.175-9.865l-2.866-1.285-.761 3.048-5.808 23.276-.553 2.216 2.115.858c13.88 5.634 29.753 8.624 43.632 9.524v17.501h26.959v-18.934c9.383-1.869 18.162-5.288 25.461-10.448 11.963-8.458 19.803-21.493 19.803-39.435-.001-14.822-4.751-25.657-13.577-34.315-8.145-7.989-19.648-14.007-33.59-19.786l-2.822-1.154c-12.42-5.051-20.601-9.124-25.688-13.447-4.88-4.147-6.86-8.473-6.86-14.401 0-7.503 3.402-12.263 8.521-15.286 5.287-3.123 12.506-4.426 19.858-4.426 11.98 0 24.682 2.101 36.349 6.557l1.591.608 1.205-1.203.094-.094.523-.522.175-.719 5.527-22.81.554-2.284-2.208-.806c-10.278-3.75-22.306-5.891-34.916-6.611v-21.948h-26.959zm38.331 143.453-.352.528a19 19 0 0 0 .352-.528m1.752-3.426-.026.063.116-.299zm1.504-6.686-.01.103.019-.254zm27.993-5.39.013 1.275q0-.658-.014-1.305zm-29.505-5.11.025.06-.081-.186zm-21.53-17.941.901.439q-.58-.284-1.175-.568zm-14.439-6.242q1.034.414 2.04.823-1.005-.409-2.04-.822zm21.804-195.416a885.7 885.7 0 0 1 175.46 176.077c-5.589-94.483-81.065-170.164-175.46-176.077m-25.852.138C144.018 70.11 70.109 144.02 63.316 236.578a885.8 885.8 0 0 1 173.26-173.261m24.271 95.017v-19.188h.001z"/></svg>

<svg width="500" height="500" viewBox="0 0 500 500" fill="none" xmlns="http://www.w3.org/2000/svg">
<rect width="500" height="500" rx="250" fill="#E0E0E0"/>
<path d="M249.972 18.9738C377.549 18.9738 480.971 122.396 480.971 249.973C480.971 377.55 377.549 480.972 249.972 480.972C122.395 480.972 18.9731 377.55 18.9731 249.973C18.9731 122.396 122.395 18.9738 249.972 18.9738ZM437.995 259.784C387.39 327.378 327.376 387.391 259.782 437.995C356.073 433.313 433.312 356.076 437.995 259.784ZM63.1772 262.421C69.0862 356.823 144.773 432.303 239.262 437.889C172.607 387.966 113.329 328.891 63.1772 262.421ZM236.518 159.937C227.922 161.735 219.635 164.962 212.614 169.824C200.86 177.965 192.745 190.641 192.745 208.397C192.745 221.339 197.236 231.665 205.461 240.195C213.601 248.635 225.31 255.23 239.637 261.033L239.648 261.037C251.928 265.948 260.988 270.222 266.977 274.981C272.817 279.621 275.562 284.572 275.562 291.032C275.562 298.386 272.629 303.638 267.548 307.157C262.334 310.769 254.621 312.707 244.934 312.707C232.558 312.707 216.061 309.699 200.759 302.842L197.893 301.557L197.132 304.605L191.324 327.881L190.771 330.097L192.886 330.955C206.766 336.589 222.639 339.579 236.518 340.479V357.98H263.477V339.046C272.86 337.177 281.639 333.758 288.938 328.598C300.901 320.14 308.741 307.105 308.741 289.163C308.74 274.341 303.99 263.506 295.164 254.848C287.019 246.859 275.516 240.841 261.574 235.062L258.752 233.908C246.332 228.857 238.151 224.784 233.064 220.461C228.184 216.314 226.204 211.988 226.204 206.06C226.204 198.557 229.606 193.797 234.725 190.774C240.012 187.651 247.231 186.348 254.583 186.348C266.563 186.348 279.265 188.449 290.932 192.905L292.523 193.513L293.728 192.31L293.822 192.216L294.345 191.694L294.52 190.975L300.047 168.165L300.601 165.881L298.393 165.075C288.115 161.325 276.087 159.184 263.477 158.464V136.516H236.518V159.937ZM274.849 303.39L274.497 303.918C274.727 303.585 274.945 303.243 275.154 302.895C275.054 303.061 274.953 303.227 274.849 303.39ZM276.601 299.964L276.575 300.027C276.614 299.928 276.653 299.827 276.691 299.728C276.661 299.806 276.632 299.886 276.601 299.964ZM278.105 293.278L278.095 293.381C278.102 293.297 278.107 293.212 278.114 293.127C278.11 293.177 278.109 293.228 278.105 293.278ZM306.098 287.888L306.111 289.163C306.111 288.725 306.106 288.289 306.097 287.858C306.097 287.867 306.098 287.878 306.098 287.888ZM276.593 282.778L276.618 282.838C276.591 282.776 276.563 282.714 276.537 282.652C276.555 282.694 276.575 282.735 276.593 282.778ZM255.063 264.837L255.964 265.276C255.578 265.086 255.186 264.898 254.789 264.708C254.881 264.752 254.972 264.793 255.063 264.837ZM240.624 258.595C241.314 258.87 241.993 259.146 242.664 259.418C241.994 259.146 241.314 258.871 240.624 258.596C240.183 258.417 239.743 258.237 239.307 258.057C239.743 258.237 240.183 258.416 240.624 258.595ZM262.428 63.1789C328.895 113.328 387.967 172.604 437.888 239.256C432.299 144.773 356.823 69.0918 262.428 63.1789ZM236.576 63.3166C144.018 70.1103 70.1089 144.02 63.3159 236.578C112.763 171.078 171.075 112.764 236.576 63.3166ZM260.847 158.334H260.846V139.146H260.847V158.334Z" fill="#5C616A"/>
</svg>
